X: 3107
T: AMONG THE HEATHER
Q:"Strathspey."
R: Strathspey.
%R:strathspey
B: James Kerr "Merry Melodies" v.3 p.13 #107
Z: 2016 John Chambers <jc:trillian.mit.edu>
M: C
L: 1/16
K: A
|:\
vA,3vB,uC3uD EC3 C3uE | F3GA3F EA3 Ac3 |\
A,3B,C3D EC3 C3c | d3Bc3A GB3 Bc3 :|
|:\
A3ce3a fa3 ea3 | f3ae3c dcBA Bc3 |\
A3ce3a fa3 ea3 | d3Bc3A GB3 Bc3 :|

%%sep 1 1 500
%%sep 1 1 500

